; HEADER_BLOCK_START
; generated by OrcaSlicer 2.3.1 on 2025-12-17 at 12:40:06
; total layer number: 50
; filament_density: 1.27
; filament_diameter: 1.75
; max_z_height: 10.05
; HEADER_BLOCK_END

; THUMBNAIL_BLOCK_START

;
; THUMBNAIL_BLOCK_END

; THUMBNAIL_BLOCK_START

;
; THUMBNAIL_BLOCK_END

; external perimeters extrusion width = 0.40mm
; perimeters extrusion width = 0.45mm
; infill extrusion width = 0.45mm
; solid infill extrusion width = 0.50mm
; top infill extrusion width = 0.40mm
; support material extrusion width = 0.40mm
; first layer extrusion width = 0.50mm

; EXECUTABLE_BLOCK_START
M73 P0 R15
M201 X2000 Y2000 Z500 E5000
M203 X500 Y500 Z12 E120
M204 P1000 R1000 T1000
M205 X7.00 Y7.00 Z0.20 E3.00 ; sets the jerk limits, mm/sec
;TYPE:Custom
M83; extruder relative mode
G28; home all axes
G1 X5 Y5 Z20 F5000.0; Spazio per spurgo e pulizia punta prima di partire
M109 S230; hotend temperature
M140 S45; heatbed temperature
M190 S45; wait for the bed to heat up
M109 S230; wait for the extruder to heat up
G92 E0; reset extruder
G1 X20 Y5 Z0.3 F5000.0; move to start-line position
G1 Z0.3 F1000; print height
G1 X200 Y5 F1500.0 E15; draw 1st line
G1 X200 Y5.3 Z0.3 F5000.0; move to side a little
M73 P1 R15
G1 X5.3  Y5.3 Z0.3 F1500.0 E30; draw 2nd line
G1 Z3 F3000; move z up little to prevent scratching of surface
G90
G21
M83 ; use relative distances for extrusion
; filament start gcode
M106 S0
;LAYER_CHANGE
;Z:0.25
;HEIGHT:0.25
;BEFORE_LAYER_CHANGE
;0.25
G92 E0

G1 E-1 F2100
;_SET_FAN_SPEED_CHANGING_LAYER
G1 Z.65 F6600
G1 X58.415 Y93.708
M73 P2 R15
G1 Z.65
G1 Z.25
G1 E1 F2100
;TYPE:Skirt
;WIDTH:0.5
G1 F3000
G1 X89.775 Y93.163 E1.38232
G1 X113.329 Y93.163 E1.0381
G1 X114.845 Y93.556 E.06902
G1 X115.978 Y94.638 E.06902
G1 X116.445 Y96.279 E.0752
G1 X116.445 Y125.279 E1.27812
G1 X116.051 Y126.794 E.06902
G1 X114.97 Y127.927 E.06902
G1 X113.383 Y128.394 E.0729
G1 X78.809 Y128.994 E1.52402
G1 X55.255 Y128.995 E1.0381
G1 X53.739 Y128.601 E.06902
G1 X52.606 Y127.52 E.06902
G1 X52.139 Y125.879 E.0752
G1 X52.139 Y96.879 E1.27812
G1 X52.532 Y95.363 E.06902
G1 X53.614 Y94.23 E.06902
G1 X55.201 Y93.764 E.0729
G1 X58.375 Y93.708 E.13994
G1 X58.383 Y94.155 F6600
G1 F3000
G1 X89.829 Y93.609 E1.38612
G1 X113.329 Y93.609 E1.03572
G1 X114.722 Y94.002 E.0638
G1 X115.706 Y95.064 E.0638
G1 X115.998 Y96.279 E.05507
G1 X115.998 Y125.279 E1.27812
G1 X115.606 Y126.672 E.0638
G1 X114.544 Y127.656 E.0638
G1 X113.375 Y127.948 E.05309
G1 X78.801 Y128.548 E1.52402
G1 X55.255 Y128.549 E1.03776
G1 X53.861 Y128.156 E.0638
G1 X52.878 Y127.094 E.0638
G1 X52.585 Y125.879 E.05507
G1 X52.585 Y96.879 E1.27812
G1 X52.978 Y95.486 E.0638
G1 X54.04 Y94.502 E.0638
G1 X55.208 Y94.21 E.05309
G1 X58.343 Y94.155 E.13817
G1 X58.351 Y94.602 F6600
M73 P3 R15
G1 F3000
G1 X89.829 Y94.055 E1.38755
G1 X113.329 Y94.055 E1.03572
G1 X114.588 Y94.446 E.05811
G1 X115.404 Y95.482 E.05811
G1 X115.552 Y96.279 E.03571
G1 X115.552 Y125.279 E1.27812
G1 X115.161 Y126.538 E.05811
G1 X114.126 Y127.354 E.05811
G1 X113.368 Y127.501 E.03404
G1 X78.793 Y128.102 E1.52402
G1 X55.255 Y128.102 E1.03742
G1 X53.996 Y127.711 E.05811
G1 X53.179 Y126.676 E.05811
G1 X53.032 Y125.879 E.03571
G1 X53.032 Y96.879 E1.27812
G1 X53.423 Y95.62 E.05811
G1 X54.458 Y94.804 E.05811
G1 X55.216 Y94.656 E.03404
G1 X58.311 Y94.602 E.13641
; printing object CoperturaSensHum-Copertura alta id:3152 copy 0
G1 E-1 F2100
G1 Z.65 F6600
G1 X78.032 Y125.156 Z.65
G1 Z.25
G1 E1 F2100
;TYPE:Inner wall
;WIDTH:0.499999
G1 F2700
G1 X55.978 Y125.156 E.97197
G1 X55.978 Y97.602 E1.21437
G1 X78.032 Y97.602 E.97197
G1 X78.032 Y125.116 E1.21261
G1 X78.505 Y125.629 F6600
;TYPE:Outer wall
G1 F2700
G1 X55.505 Y125.629 E1.01368
G1 X55.505 Y97.129 E1.25608
G1 X78.505 Y97.129 E1.01368
G1 X78.505 Y125.589 E1.25432
G1 E-1 F2100
M73 P4 R15
G1 Z.65 F6600
G1 X77.898 Y98.649 Z.65
G1 Z.25
G1 E1 F2100
;TYPE:Bottom surface
;WIDTH:0.505105
G1 X77.185 Y97.937 E.0449
G1 X76.547 Y97.937 E.02846
G1 X77.697 Y99.087 E.07249
G1 X77.697 Y99.725 E.02846
G1 X75.909 Y97.937 E.11274
G1 X75.27 Y97.937 E.02846
G1 X77.697 Y100.364 E.15299
G1 X77.697 Y101.002 E.02846
G1 X74.632 Y97.937 E.19324
G1 X73.993 Y97.937 E.02846
G1 X77.697 Y101.641 E.23349
G1 X77.697 Y102.279 E.02846
G1 X73.355 Y97.937 E.27373
G1 X72.716 Y97.937 E.02846
G1 X77.697 Y102.918 E.31398
G1 X77.697 Y103.556 E.02846
G1 X72.078 Y97.937 E.35423
G1 X71.439 Y97.937 E.02846
G1 X77.697 Y104.194 E.39448
G1 X77.697 Y104.833 E.02846
G1 X70.801 Y97.937 E.43473
G1 X70.162 Y97.937 E.02846
G1 X77.697 Y105.471 E.47498
G1 X77.697 Y106.11 E.02846
G1 X69.524 Y97.937 E.51523
G1 X68.886 Y97.937 E.02846
G1 X77.697 Y106.748 E.55548
G1 X77.697 Y107.387 E.02846
G1 X68.247 Y97.937 E.59573
G1 X67.609 Y97.937 E.02846
G1 X77.697 Y108.025 E.63598
G1 X77.697 Y108.664 E.02846
G1 X66.97 Y97.937 E.67623
G1 X66.332 Y97.937 E.02846
G1 X77.697 Y109.302 E.71647
G1 X77.697 Y109.941 E.02846
G1 X65.693 Y97.937 E.75672
G1 X65.055 Y97.937 E.02846
G1 X77.697 Y110.579 E.79697
G1 X77.697 Y111.217 E.02846
M73 P4 R14
G1 X64.416 Y97.937 E.83722
G1 X63.778 Y97.937 E.02846
G1 X77.697 Y111.856 E.87747
G1 X77.697 Y112.494 E.02846
G1 X63.139 Y97.937 E.91772
G1 X62.501 Y97.937 E.02846
G1 X77.697 Y113.133 E.95797
G1 X77.697 Y113.771 E.02846
M73 P5 R14
G1 X61.863 Y97.937 E.99822
G1 X61.224 Y97.937 E.02846
G1 X77.697 Y114.41 E1.03847
G1 X77.697 Y115.048 E.02846
G1 X60.586 Y97.937 E1.07872
G1 X59.947 Y97.937 E.02846
G1 X77.697 Y115.687 E1.11897
G1 X77.697 Y116.325 E.02846
G1 X59.309 Y97.937 E1.15922
G1 X58.67 Y97.937 E.02846
G1 X77.697 Y116.964 E1.19946
G1 X77.697 Y117.602 E.02846
G1 X58.032 Y97.937 E1.23971
G1 X57.393 Y97.937 E.02846
G1 X77.697 Y118.24 E1.27996
G1 X77.697 Y118.879 E.02846
G1 X56.755 Y97.937 E1.32021
G1 X56.313 Y97.937 E.01971
G1 X56.313 Y98.133 E.00875
G1 X77.697 Y119.517 E1.34809
G1 X77.697 Y120.156 E.02846
G1 X56.313 Y98.772 E1.34809
G1 X56.313 Y99.41 E.02846
G1 X77.697 Y120.794 E1.34809
G1 X77.697 Y121.433 E.02846
M73 P6 R14
G1 X56.313 Y100.049 E1.34809
G1 X56.313 Y100.687 E.02846
G1 X77.697 Y122.071 E1.34809
G1 X77.697 Y122.71 E.02846
G1 X56.313 Y101.325 E1.34809
G1 X56.313 Y101.964 E.02846
G1 X77.697 Y123.348 E1.34809
G1 X77.697 Y123.987 E.02846
G1 X56.313 Y102.602 E1.34809
G1 X56.313 Y103.241 E.02846
G1 X77.697 Y124.625 E1.34809
G1 X77.697 Y124.821 E.00874
G1 X77.255 Y124.821 E.01972
G1 X56.313 Y103.879 E1.32021
G1 X56.313 Y104.518 E.02846
G1 X76.616 Y124.821 E1.27996
G1 X75.978 Y124.821 E.02846
G1 X56.313 Y105.156 E1.23971
G1 X56.313 Y105.795 E.02846
G1 X75.339 Y124.821 E1.19946
G1 X74.701 Y124.821 E.02846
M73 P7 R14
G1 X56.313 Y106.433 E1.15921
G1 X56.313 Y107.072 E.02846
G1 X74.062 Y124.821 E1.11896
G1 X73.424 Y124.821 E.02846
G1 X56.313 Y107.71 E1.07871
G1 X56.313 Y108.348 E.02846
G1 X72.785 Y124.821 E1.03846
G1 X72.147 Y124.821 E.02846
G1 X56.313 Y108.987 E.99821
G1 X56.313 Y109.625 E.02846
G1 X71.508 Y124.821 E.95796
G1 X70.87 Y124.821 E.02846
G1 X56.313 Y110.264 E.91772
G1 X56.313 Y110.902 E.02846
G1 X70.232 Y124.821 E.87747
G1 X69.593 Y124.821 E.02846
G1 X56.313 Y111.541 E.83722
G1 X56.313 Y112.179 E.02846
G1 X68.955 Y124.821 E.79697
G1 X68.316 Y124.821 E.02846
G1 X56.313 Y112.818 E.75672
G1 X56.313 Y113.456 E.02846
G1 X67.678 Y124.821 E.71647
G1 X67.039 Y124.821 E.02846
G1 X56.313 Y114.095 E.67622
G1 X56.313 Y114.733 E.02846
G1 X66.401 Y124.821 E.63597
G1 X65.762 Y124.821 E.02846
G1 X56.313 Y115.371 E.59572
G1 X56.313 Y116.01 E.02846
M73 P8 R14
G1 X65.124 Y124.821 E.55547
G1 X64.485 Y124.821 E.02846
G1 X56.313 Y116.648 E.51522
G1 X56.313 Y117.287 E.02846
G1 X63.847 Y124.821 E.47497
G1 X63.209 Y124.821 E.02846
G1 X56.313 Y117.925 E.43473
G1 X56.313 Y118.564 E.02846
G1 X62.57 Y124.821 E.39448
G1 X61.932 Y124.821 E.02846
G1 X56.313 Y119.202 E.35423
G1 X56.313 Y119.841 E.02846
G1 X61.293 Y124.821 E.31398
G1 X60.655 Y124.821 E.02846
G1 X56.313 Y120.479 E.27373
G1 X56.313 Y121.118 E.02846
G1 X60.016 Y124.821 E.23348
G1 X59.378 Y124.821 E.02846
G1 X56.313 Y121.756 E.19323
G1 X56.313 Y122.394 E.02846
G1 X58.739 Y124.821 E.15298
G1 X58.101 Y124.821 E.02846
G1 X56.313 Y123.033 E.11273
G1 X56.313 Y123.671 E.02846
G1 X57.462 Y124.821 E.07248
G1 X56.824 Y124.821 E.02846
G1 X56.112 Y124.109 E.0449
G1 E-1
G1 Z.65 F6600
G1 X90.552 Y97.814 Z.65
G1 Z.25
G1 E1 F2100
;TYPE:Inner wall
;WIDTH:0.499999
G1 F2700
G1 X90.775 Y98.002 E.01284
G1 X112.383 Y98.002 E.9523
G1 X112.606 Y97.814 E.01284
G1 X112.606 Y101.393 E.15773
G1 X111.802 Y102.197 E.05011
G1 X111.644 Y102.447 E.01304
G1 X111.606 Y102.671 E.00998
G1 X111.606 Y104.887 E.09767
G1 X111.644 Y105.11 E.01001
G1 X111.802 Y105.36 E.01301
G1 X112.606 Y106.164 E.05011
G1 X112.606 Y124.555 E.81057
G1 X90.552 Y124.555 E.97197
G1 X90.552 Y106.164 E.81057
G1 X91.356 Y105.36 E.05011
G1 X91.495 Y105.157 E.01082
G1 X91.552 Y104.887 E.0122
G1 X91.552 Y102.671 E.09767
G1 X91.514 Y102.447 E.00998
G1 X91.356 Y102.197 E.01304
G1 X90.552 Y101.393 E.05011
G1 X90.552 Y97.854 E.15597
G1 X90.579 Y97.332 F6600
;TYPE:Outer wall
G1 F2700
G1 X90.775 Y97.529 E.01224
G1 X112.383 Y97.529 E.9523
G1 X112.579 Y97.332 E.01224
G1 X112.579 Y96.529 E.03542
G1 X113.079 Y96.529 E.02204
G1 X113.079 Y96.779 E.01102
;WIDTH:0.50338
G1 X113.079 Y98.225 E.06423
;WIDTH:0.499999
G1 X113.079 Y101.589 E.14828
G1 X112.136 Y102.532 E.05874
G1 X112.079 Y102.671 E.00662
G1 X112.079 Y104.887 E.09767
G1 X112.136 Y105.025 E.00662
G1 X113.079 Y105.968 E.05874
G1 X113.079 Y125.029 E.84006
G1 X90.079 Y125.029 E1.01368
G1 X90.079 Y105.968 E.84006
G1 X91.021 Y105.025 E.05874
G1 X91.079 Y104.887 E.00662
G1 X91.079 Y102.671 E.09767
G1 X91.021 Y102.532 E.00662
M73 P9 R14
G1 X90.079 Y101.589 E.05874
G1 X90.079 Y96.529 E.22304
G1 X90.579 Y96.529 E.02204
G1 X90.579 Y97.292 E.03366
G1 E-1 F2100
G1 Z.65 F6600
G1 X111.566 Y98.136 Z.65
G1 Z.25
G1 E1 F2100
;TYPE:Bottom surface
;WIDTH:0.501741
G1 X112.271 Y98.841 E.04412
G1 X112.271 Y99.474 E.02804
G1 X111.133 Y98.336 E.0712
G1 X110.499 Y98.336 E.02804
G1 X112.271 Y100.108 E.11086
G1 X112.271 Y100.742 E.02804
G1 X109.866 Y98.336 E.15051
G1 X109.232 Y98.336 E.02804
G1 X112.211 Y101.315 E.18637
G1 X111.894 Y101.632 E.01983
G1 X108.598 Y98.336 E.2062
G1 X107.965 Y98.336 E.02804
G1 X111.577 Y101.949 E.22603
G1 X111.418 Y102.146 E.01118
G1 X111.329 Y102.334 E.00924
G1 X107.331 Y98.336 E.25014
G1 X106.697 Y98.336 E.02804
G1 X111.271 Y102.91 E.28619
G1 X111.271 Y103.544 E.02804
G1 X106.063 Y98.336 E.32584
G1 X105.43 Y98.336 E.02804
G1 X111.271 Y104.178 E.3655
G1 X111.271 Y104.811 E.02804
G1 X104.796 Y98.336 E.40515
G1 X104.162 Y98.336 E.02804
G1 X112.271 Y106.445 E.50737
G1 X112.271 Y107.079 E.02804
G1 X103.529 Y98.336 E.54702
G1 X102.895 Y98.336 E.02804
G1 X112.271 Y107.712 E.58667
G1 X112.271 Y108.346 E.02804
G1 X102.261 Y98.336 E.62633
G1 X101.628 Y98.336 E.02804
G1 X112.271 Y108.98 E.66598
G1 X112.271 Y109.614 E.02804
G1 X100.994 Y98.336 E.70563
G1 X100.36 Y98.336 E.02804
G1 X112.271 Y110.247 E.74528
G1 X112.271 Y110.881 E.02804
G1 X99.727 Y98.336 E.78493
G1 X99.093 Y98.336 E.02804
G1 X112.271 Y111.515 E.82458
G1 X112.271 Y112.148 E.02804
G1 X98.459 Y98.336 E.86424
G1 X97.825 Y98.336 E.02804
G1 X112.271 Y112.782 E.90389
G1 X112.271 Y113.416 E.02804
G1 X97.192 Y98.336 E.94354
G1 X96.558 Y98.336 E.02804
M73 P10 R14
G1 X112.271 Y114.049 E.98319
G1 X112.271 Y114.683 E.02804
G1 X95.924 Y98.336 E1.02284
G1 X95.291 Y98.336 E.02804
G1 X112.271 Y115.317 E1.06249
G1 X112.271 Y115.951 E.02804
G1 X94.657 Y98.336 E1.10214
G1 X94.023 Y98.336 E.02804
G1 X112.271 Y116.584 E1.1418
G1 X112.271 Y117.218 E.02804
G1 X93.39 Y98.336 E1.18145
G1 X92.756 Y98.336 E.02804
G1 X112.271 Y117.852 E1.2211
G1 X112.271 Y118.485 E.02804
G1 X92.122 Y98.336 E1.26075
G1 X91.488 Y98.336 E.02804
G1 X112.271 Y119.119 E1.3004
G1 X112.271 Y119.753 E.02804
G1 X90.887 Y98.369 E1.33805
G1 X90.887 Y99.002 E.02804
G1 X112.271 Y120.386 E1.33805
G1 X112.271 Y121.02 E.02804
G1 X90.887 Y99.636 E1.33805
G1 X90.887 Y100.27 E.02804
M73 P11 R14
G1 X112.271 Y121.654 E1.33805
G1 X112.271 Y122.288 E.02804
M73 P11 R13
G1 X90.887 Y100.903 E1.33805
G1 X90.887 Y101.255 E.01554
G1 X91.597 Y101.965 E.04446
G1 X91.74 Y102.146 E.01017
G1 X91.83 Y102.335 E.00928
G1 X91.876 Y102.526 E.0087
G1 X112.271 Y122.921 E1.27617
G1 X112.271 Y123.555 E.02804
G1 X91.887 Y103.171 E1.27547
G1 X91.887 Y103.804 E.02804
G1 X112.271 Y124.189 E1.27547
G1 X112.271 Y124.221 E.00142
G1 X111.669 Y124.221 E.02662
G1 X91.887 Y104.438 E1.23783
G1 X91.887 Y104.894 E.02017
G1 X91.866 Y105.051 E.00699
G1 X111.036 Y124.221 E1.1995
G1 X110.402 Y124.221 E.02804
G1 X91.677 Y105.496 E1.17163
G1 X91.369 Y105.821 E.01983
G1 X109.768 Y124.221 E1.15131
G1 X109.135 Y124.221 E.02804
G1 X91.052 Y106.138 E1.13148
G1 X90.887 Y106.303 E.01031
G1 X90.887 Y106.607 E.01345
G1 X108.501 Y124.221 E1.10214
G1 X107.867 Y124.221 E.02804
M73 P12 R13
G1 X90.887 Y107.24 E1.06249
G1 X90.887 Y107.874 E.02804
G1 X107.233 Y124.221 E1.02284
G1 X106.6 Y124.221 E.02804
G1 X90.887 Y108.508 E.98319
G1 X90.887 Y109.141 E.02804
G1 X105.966 Y124.221 E.94353
G1 X105.332 Y124.221 E.02804
G1 X90.887 Y109.775 E.90388
G1 X90.887 Y110.409 E.02804
G1 X104.699 Y124.221 E.86423
G1 X104.065 Y124.221 E.02804
G1 X90.887 Y111.042 E.82458
G1 X90.887 Y111.676 E.02804
G1 X103.431 Y124.221 E.78493
G1 X102.798 Y124.221 E.02804
G1 X90.887 Y112.31 E.74528
G1 X90.887 Y112.944 E.02804
G1 X102.164 Y124.221 E.70562
G1 X101.53 Y124.221 E.02804
G1 X90.887 Y113.577 E.66597
G1 X90.887 Y114.211 E.02804
G1 X100.897 Y124.221 E.62632
G1 X100.263 Y124.221 E.02804
G1 X90.887 Y114.845 E.58667
G1 X90.887 Y115.478 E.02804
G1 X99.629 Y124.221 E.54702
G1 X98.995 Y124.221 E.02804
G1 X90.887 Y116.112 E.50737
G1 X90.887 Y116.746 E.02804
G1 X98.362 Y124.221 E.46772
G1 X97.728 Y124.221 E.02804
G1 X90.887 Y117.379 E.42806
G1 X90.887 Y118.013 E.02804
M73 P13 R13
G1 X97.094 Y124.221 E.38841
G1 X96.461 Y124.221 E.02804
G1 X90.887 Y118.647 E.34876
G1 X90.887 Y119.281 E.02804
G1 X95.827 Y124.221 E.30911
G1 X95.193 Y124.221 E.02804
G1 X90.887 Y119.914 E.26946
G1 X90.887 Y120.548 E.02804
G1 X94.56 Y124.221 E.22981
G1 X93.926 Y124.221 E.02804
G1 X90.887 Y121.182 E.19015
G1 X90.887 Y121.815 E.02804
G1 X93.292 Y124.221 E.1505
G1 X92.658 Y124.221 E.02804
G1 X90.887 Y122.449 E.11085
G1 X90.887 Y123.083 E.02804
G1 X92.025 Y124.221 E.0712
G1 X91.391 Y124.221 E.02804
G1 X90.686 Y123.516 E.04412
; stop printing object CoperturaSensHum-Copertura alta id:3152 copy 0
;LAYER_CHANGE
;Z:0.45
;HEIGHT:0.2
;BEFORE_LAYER_CHANGE
;0.45
G92 E0

G1 E-1 F2100
;_SET_FAN_SPEED_CHANGING_LAYER
M104 S225 ; set nozzle temperature
; printing object CoperturaSensHum-Copertura alta id:3152 copy 0
G1 Z.85 F6600
G1 X78.151 Y125.275 Z.85
G1 Z.45
G1 E1 F2100
;TYPE:Inner wall
;WIDTH:0.449999
G1 F3600
G1 X55.858 Y125.275 E.71686
G1 X55.858 Y97.483 E.89372
G1 X78.151 Y97.483 E.71686
G1 X78.151 Y125.235 E.89243
G1 X78.555 Y125.679 F6600
;TYPE:Outer wall
;WIDTH:0.399999
G1 F3600
G1 X55.455 Y125.679 E.65157
G1 X55.455 Y97.079 E.80671
G1 X78.555 Y97.079 E.65157
G1 X78.555 Y125.639 E.80558
G1 E-1 F2100
G1 Z.85 F6600
G1 X77.672 Y123.855 Z.85
G1 Z.45
G1 E1 F2100
;TYPE:Internal solid infill
;WIDTH:0.594407
G1 F1800
G1 X76.73 Y124.796 E.058
G1 X77.672 Y124.796 E.04101
G1 X77.672 Y123.895 E.03927
G1 X77.986 Y122.891 F6600
;WIDTH:0.501268
G1 F1800
G1 X75.973 Y124.904 E.10308
G1 X75.325 Y124.904 E.02347
G1 X77.78 Y122.449 E.12574
G1 X77.78 Y121.801 E.02347
G1 X74.676 Y124.904 E.15893
G1 X74.028 Y124.904 E.02347
G1 X77.78 Y121.152 E.19212
G1 X77.78 Y120.504 E.02347
G1 X73.38 Y124.904 E.22531
G1 X72.732 Y124.904 E.02347
G1 X77.78 Y119.856 E.2585
G1 X77.78 Y119.208 E.02347
G1 X72.084 Y124.904 E.29169
G1 X71.435 Y124.904 E.02347
G1 X77.78 Y118.56 E.32488
G1 X77.78 Y117.911 E.02347
G1 X70.787 Y124.904 E.35807
G1 X70.139 Y124.904 E.02347
G1 X77.78 Y117.263 E.39126
G1 X77.78 Y116.615 E.02347
M73 P14 R13
G1 X69.491 Y124.904 E.42445
G1 X68.843 Y124.904 E.02347
G1 X77.78 Y115.967 E.45764
G1 X77.78 Y115.319 E.02347
G1 X68.194 Y124.904 E.49083
G1 X67.546 Y124.904 E.02347
G1 X77.78 Y114.67 E.52402
G1 X77.78 Y114.022 E.02347
G1 X66.898 Y124.904 E.55721
G1 X66.25 Y124.904 E.02347
G1 X77.78 Y113.374 E.5904
G1 X77.78 Y112.726 E.02347
